X: 11955
T: Enchanted Lady, The
R: reel
M: 4/4
K: Dmajor
A3G FAdB|AGFD EA A2|A3G FAdB|ABde fddB|
A3G FAdB|AGFD EA A2|A3G FAdB|ABde fdde||
f2df efdf|afdf edBd|f2df efdA|(3Bcd AG FDDe|
f2df efdf|afdf edBd|A3B dfbf|afeg fddB||

